src/images_karasa_jaga_svg/cmd/32/fontworkshapetype.fontwork-inflate.svg

<svg height="32" viewBox="0 0 32 32" width="32" xmlns="http://www.w3.org/2000/svg" xmlns:xlink="http://www.w3.org/1999/xlink"><linearGradient id="a" gradientUnits="userSpaceOnUse" x1="56" x2="56" y1="128" y2="0"><stop offset="0" stop-color="#fff"/><stop offset=".46428573" stop-color="#fff"/><stop offset=".78125" stop-color="#f1f1f1"/><stop offset=".90625" stop-color="#eaeaea"/><stop offset="1" stop-color="#dfdfdf"/></linearGradient><linearGradient id="b" gradientUnits="userSpaceOnUse" x1="7.999996" x2="120" y1="63.999992" y2="63.999992"><stop offset="0" stop-color="#7c9fcf"/><stop offset=".5" stop-color="#7c9ece"/><stop offset="1" stop-color="#7b9dcf"/></linearGradient><g transform="scale(.25)"><path d="m54.683594 16.185547a4.1530251 4.1530251 0 0 0 -1.951172.486328l-46.6835939 24.835937a4.1530251 4.1530251 0 0 0 -2.2011719 3.666016v37.652344a4.1530251 4.1530251 0 0 0 2.2011719 3.666016l46.6835939 24.835932a4.1530251 4.1530251 0 0 0 1.951172.48633h18.632812a4.1530251 4.1530251 0 0 0 1.951172-.48633l46.683592-24.835932a4.1530251 4.1530251 0 0 0 2.20117-3.666016v-37.652344a4.1530251 4.1530251 0 0 0 -2.20117-3.666016l-46.683592-24.835937a4.1530251 4.1530251 0 0 0 -1.951172-.486328z" fill="url(#b)"/><path d="m54.684151 20.337498-46.6841546 24.836937v37.651127l46.6841546 24.836928h18.631691l46.684158-24.836928v-37.651127l-46.684158-24.836937z" fill="url(#a)"/></g></svg>

<?xml version="1.0" encoding="UTF-8" standalone="no"?>
<!-- Created with Inkscape (http://www.inkscape.org/) -->

<svg
   xmlns:dc="http://purl.org/dc/elements/1.1/"
   xmlns:cc="http://creativecommons.org/ns#"
   xmlns:rdf="http://www.w3.org/1999/02/22-rdf-syntax-ns#"
   xmlns:svg="http://www.w3.org/2000/svg"
   xmlns="http://www.w3.org/2000/svg"
   xmlns:xlink="http://www.w3.org/1999/xlink"
   xmlns:sodipodi="http://sodipodi.sourceforge.net/DTD/sodipodi-0.dtd"
   xmlns:inkscape="http://www.inkscape.org/namespaces/inkscape"
   version="1.1"
   id="svg2"
   width="128"
   height="128"
   viewBox="0 0 128 128"
   sodipodi:docname="fontworkshapetype.fontwork-inflate.svg"
   inkscape:export-filename="/home/rizmut/Dokumen/Rizmut/Github/libreoffice-style-karasa-jaga/build/images_karasa_jaga/cmd/32/fontworkshapetype.fontwork-inflate.png"
   inkscape:export-xdpi="24"
   inkscape:export-ydpi="24"
   inkscape:version="0.92.3 (unknown)">
  <metadata
     id="metadata8">
    <rdf:RDF>
      <cc:Work
         rdf:about="">
        <dc:format>image/svg+xml</dc:format>
        <dc:type
           rdf:resource="http://purl.org/dc/dcmitype/StillImage" />
        <dc:title></dc:title>
      </cc:Work>
    </rdf:RDF>
  </metadata>
  <defs
     id="defs6">
    <linearGradient
       id="linearGradient7422">
      <stop
         style="stop-color:#7c9fcf;stop-opacity:1"
         offset="0"
         id="stop7424" />
      <stop
         id="stop5348"
         offset="0.5"
         style="stop-color:#7c9ece;stop-opacity:1" />
      <stop
         id="stop7426"
         offset="1"
         style="stop-color:#7b9dcf;stop-opacity:1" />
    </linearGradient>
    <linearGradient
       id="linearGradient3369">
      <stop
         id="stop3372"
         offset="0"
         style="stop-color:#ffffff;stop-opacity:1;" />
      <stop
         style="stop-color:#ffffff;stop-opacity:1;"
         offset="0.46428573"
         id="stop3374" />
      <stop
         style="stop-color:#f1f1f1;stop-opacity:1;"
         offset="0.78125"
         id="stop3376" />
      <stop
         id="stop3378"
         offset="0.90625"
         style="stop-color:#eaeaea;stop-opacity:1;" />
      <stop
         id="stop3384"
         offset="1"
         style="stop-color:#dfdfdf;stop-opacity:1;" />
    </linearGradient>
    <linearGradient
       inkscape:collect="always"
       xlink:href="#linearGradient3369"
       id="linearGradient1089"
       x1="56"
       y1="128"
       x2="56"
       y2="0"
       gradientUnits="userSpaceOnUse" />
    <linearGradient
       inkscape:collect="always"
       xlink:href="#linearGradient7422"
       id="linearGradient1093"
       gradientUnits="userSpaceOnUse"
       x1="7.9999962"
       y1="63.999992"
       x2="120"
       y2="63.999992" />
  </defs>
  <sodipodi:namedview
     pagecolor="#ffffff"
     bordercolor="#666666"
     borderopacity="1"
     objecttolerance="10"
     gridtolerance="10"
     guidetolerance="10"
     inkscape:pageopacity="0"
     inkscape:pageshadow="2"
     inkscape:window-width="1366"
     inkscape:window-height="706"
     id="namedview4"
     showgrid="true"
     inkscape:snap-page="true"
     inkscape:snap-global="true"
     inkscape:zoom="2.4494288"
     inkscape:cx="78.911819"
     inkscape:cy="48.031971"
     inkscape:window-x="0"
     inkscape:window-y="0"
     inkscape:window-maximized="1"
     inkscape:current-layer="svg2">
    <inkscape:grid
       type="xygrid"
       id="grid814"
       spacingx="4"
       spacingy="4"
       empspacing="2" />
  </sodipodi:namedview>
  <g
     id="g1118">
    <path
       d="m 54.683594,16.185547 a 4.1530251,4.1530251 0 0 0 -1.951172,0.486328 L 6.0488281,41.507812 a 4.1530251,4.1530251 0 0 0 -2.2011719,3.666016 v 37.652344 a 4.1530251,4.1530251 0 0 0 2.2011719,3.666016 L 52.732422,111.32812 a 4.1530251,4.1530251 0 0 0 1.951172,0.48633 h 18.632812 a 4.1530251,4.1530251 0 0 0 1.951172,-0.48633 L 121.95117,86.492188 a 4.1530251,4.1530251 0 0 0 2.20117,-3.666016 V 45.173828 a 4.1530251,4.1530251 0 0 0 -2.20117,-3.666016 L 75.267578,16.671875 a 4.1530251,4.1530251 0 0 0 -1.951172,-0.486328 z"
       id="path1091"
       style="opacity:1;fill:url(#linearGradient1093);fill-opacity:1;stroke:none;stroke-width:4.28448486;stroke-linecap:round;stroke-linejoin:bevel;stroke-miterlimit:4;stroke-dasharray:none;stroke-dashoffset:0;stroke-opacity:0.73039216"
       inkscape:original="M 54.683594 20.337891 L 8 45.173828 L 8 82.826172 L 54.683594 107.66211 L 73.316406 107.66211 L 120 82.826172 L 120 45.173828 L 73.316406 20.337891 L 54.683594 20.337891 z "
       inkscape:radius="4.1526098"
       sodipodi:type="inkscape:offset" />
    <path
       style="opacity:1;fill:url(#linearGradient1089);fill-opacity:1;stroke:none;stroke-width:4.28448486;stroke-linecap:round;stroke-linejoin:bevel;stroke-miterlimit:4;stroke-dasharray:none;stroke-dashoffset:0;stroke-opacity:0.73039216"
       d="M 54.684151,20.337498 7.9999964,45.174435 V 82.825562 L 54.684151,107.66249 H 73.315842 L 120,82.825562 V 45.174435 L 73.315842,20.337498 Z"
       id="rect3937-9"
       inkscape:connector-curvature="0"
       sodipodi:nodetypes="ccccccccc" />
  </g>
</svg>
